X: 14
T: Glen Of Aherlow, The
C: Sean Ryan
Z: Robin Andrews
S: https://thesession.org/tunes/496#setting51637
R: reel
M: 4/4
L: 1/8
K: Edor
|:B2 AF B2 AF |E2 EF ED D2 |B2 AF B2 AF |DFAF GE E2 |
B2 AF B2 AF |E2 EF ED B,A, |DE E2 DEFA |dBAF FEE2:|
|:eBRB2 egfe |fd (3ded Adfd|eBRB2 egfe|dBAF FE E2|
eBRB2 egfe |fd (3ded Adfd|ABBd egfe|dBAF FE E2:|

